svg/arrow_top_right_bold_box.svg

<svg xmlns="http://www.w3.org/2000/svg" viewBox="0 0 24 24"><path d="M19 3c1.1 0 2 .9 2 2v14c0 1.1-.9 2-2 2H5c-1.1 0-2-.9-2-2V5c0-1.1.9-2 2-2zM8.7 8l2.1 2.1L7 14l2.8 2.8 3.8-3.9 2.1 2.1V8z"/></svg>

<svg xmlns="http://www.w3.org/2000/svg" id="mdi-arrow-top-right-bold-box" viewBox="0 0 24 24"><path d="M19 3C20.1 3 21 3.9 21 5V19C21 20.1 20.1 21 19 21H5C3.9 21 3 20.1 3 19V5C3 3.9 3.9 3 5 3H19M8.7 8L10.8 10.1L7 14L9.8 16.8L13.6 12.9L15.7 15V8H8.7Z" /></svg>
